X:839
L:1/4
M:4/4
K:G
 d _d c |:"G" B2 B2 | A G A ^A | B d B G- |"G7" G g f =f |"C" e2 e2 | d c c d | e g e c- | 
 c G =A ^A |"G" B G =A G | B G A G | B d B d- |1 d G A ^A | B G A G | B G A G | B d B d- | d4 | 
"A7" ^c2 ^c2 | B A A B | ^c e ^c B- | B A B ^c |"D" d e d c- | c B A2 |"D7" D E D C- | C B, A,2 :|2 
"G" d d ^c d |"A7" e ^f g e |"D7" f2 a2 |"G" g e d B | G4 |]

